X:1
T:The Rose Tree
L:1/8
Q:1/4=110
M:2/4
K:G
[K:D]"D""^The Rose Tree" dB AF |"D" A>B AB |"G" d2 ed/e/ |"A" fe ef/e/ |
"D" dB AF |"D" A>B AB |"G" d2"A" ed/e/ |"D" fd d2 ::
"D" fe fg |"G" a2 gf |"Em" eb ba |"A" be ef/e/ |
"Bm" dB AF |"A" A>B AB |"G" d2"A" ed/e/ |"D" fd d2 ::
"D" dB AF |"D" A>B AB |"G" d2 ed/e/ |"A" fe ef/e/ |
"D" dB AF |"D" A>B AB |"G" d2"A" ed/e/ |"D" fd d2 ::
"D" fe fg |"G" a2 gf |"Em" eb ba |"A" be ef/e/ |
"Bm" dB AF |"A" A>B AB |"G" d2"A" ed/e/ |"D" fd d2 :|
